X:1
T:Title
%%score { 1 | ( 2 3 ) }
L:1/8
M:4/4
K:D
V:1 treble nm="Grand Piano"
V:2 bass 
V:3 bass 
V:1
 z4 z2[Q:1/4=100] [DF][EG] | [FA]2 [DF][FA] [Fd]2 [GB]2 | [FA]6 [FA][FA] | %3
 [DGB]2 [DGB][DGB] [DFA]2 [A,DF]2 |[M:3/4] [A,CE]6 |[M:1/4] [A,DF][A,EG] | %6
[M:4/4] [DFA]2 [A,DF][DFA] [Fd]2 [GB]2 | [FA]6 [FA]B | c2 cc c2 B2 |[M:3/4] [CA]6 | %10
[M:1/4] [CA][EG] |[M:4/4] F2 FF F2 [DFA][A,DF] | [CEG]6 [CEG][DF] | [CE]2 [CE][CE] [CE]2 [DF][EG] | %14
 [DF]6 [DF][EG] | [FA][FA][FA][FA] [FA]2 [EG]F | BBBB B2 BB | %17
 [FA]2 [FA][A,DF] [A,EG]2[K:bass] [G,CE]2 |[M:3/4] [F,D]6 |] %19
V:2
 z4 z2 [D,A,][D,A,] | [D,A,]2 [D,A,][D,D] [D,A,]2 [D,D]2 | [D,D]6 [D,D][D,D] | G,2 G,G, D,2 D,2 | %4
[M:3/4] A,,6 |[M:1/4] D,D, |[M:4/4] D,2 D,D, [D,A,]2 [D,D]2 | [D,D]6 z =F | %8
 [E,A,E]2 [E,A,E][E,A,E] [E,^G,E]2 [E,G,D]2 |[M:3/4] [A,,A,]6 |[M:1/4] [A,,A,][A,,A,] | %11
[M:4/4] [D,A,D]2 [D,A,D][D,A,D] [D,A,D]2 D,D, | A,6 A,,[A,,A,] | %13
 [A,,A,]2 [A,,A,][A,,A,] [A,,A,]2 [A,,A,][A,,A,] | [D,A,]6 [D,A,][D,A,] | %15
 [D,D][D,D][D,D][D,D] [D,D]2 [D,B,][D,D] | [G,DG][G,DG][G,DG][G,DG] [G,DG]2 [G,DG][G,DG] | %17
 [D,D]2 [D,D]D, A,,2 A,,2 |[M:3/4] D,6 |] %19
V:3
 x8 | x8 | x8 | x8 |[M:3/4] x6 |[M:1/4] x2 |[M:4/4] x8 | z4 z2 [D,D]2 | x8 |[M:3/4] x6 | %10
[M:1/4] x2 |[M:4/4] x8 | x8 | x8 | x8 | x8 | x8 | x8 |[M:3/4] x6 |] %19

